!!!OTL: La jeune mariée (201), S. 437f
!!!id: T0384
**kern
*clefG2
*k[f#]
*G:
{8d
=1
4g
8b
8dd
=2
4b
8a}
=3
{16a
16a
=4
8a
8g
8d}
=5
{16a
16a
=6
8a
8g
8d}
=7
{8d
=8
4g
8b
8dd
=9
4b
8a}
=10
{8ee
=11
8dd
16dd
16dd
16g
16cc
16cc
8e
8f#
16g
=12
4g}
8r
=13
{8b
=14
8g
8b
8g}
=15
{8cc
=16
8b
16b
16b
16g
16a
16a
8e
8f#
16g
=17
4g}
8r
==
*-
!!!minrhy: 16
!!!meters: 2/4 ]  ZZ[7
!!!cut: La jeune mariée (201), S. 437f
!!!reg: Luxemburg
!!!trd: Singendes Volk, Esch-Alzette, 1937 posth.
!!!rhy1: X_  X__X_X_  X__X_
!!!rhy2: XX  X_X_X_
!!!key: T0384  16  G 2/4 ]  ZZ[7
!!!mod: HEPTATONIK IONISCH]  AMBITUS[9
!!!kad: 2-5-52111
!!!akz: 13_2_2_13_51_1_31_
!!!fot: 'a__b__b__a__c__d__e__
!!!for: 'a__b__b__a__c__bv_c__
!!!fok: '^a_\__\__^a_Vd_\__Vd_
!! PHRAS[AUFTAKTIG]
!!!fkt: Hochzeits-, Ehestandslied
!!!bem: StraPen, fff Witry, 13.12.1932
!! THILL; Mathias
!! PR[10] 2K[7] 2G[20] 3K[3] 3G[3] 4A[3] 4Ü[0] 5A[3] 6K[0] 6G[0]
!! 7K[0] 7G[0] 8A[0] MEHR[0] SI[40] ABS[30] SR[27] SP[13]
!! ST[8] 2k[7] 2g[30] 3k[7] 3g[3] 4d[0] 4ü[0] 5d[3] 6k[0] 6g[0]
!! 7k[0] 7g[0] 8d[0] mehr[0] si[50] dm[-10] sr[37] sp[13]
!! 1F[55] 2F[24] 3F[0] 4F[0] LF[0] 2P[12] 3P[0] 4P[0] TRI[0] DF[4] AB[33]
!! TF[0] U3K[0] U3[0] U4[0] U4Ü[0] U5[0] U6K[0] U6[3] U7K[0] U7[3]
!! N1[10] N2K[0] N2[10] N3K[0] N3[19] N4[10] N4Ü[0] N5[16] N6K[0] N6[10]
!!!n7k: 0] N7[6] O1[10] O2K[0] O2[3] O3K[0] O3[0] HÖ[0
